img/cv.svg

<svg width="24" height="24" fill="none" xmlns="http://www.w3.org/2000/svg"><path d="M22 10v5c0 5-2 7-7 7H9c-5 0-7-2-7-7V9c0-5 2-7 7-7h5" stroke="#111" stroke-width="1.5" stroke-linecap="round" stroke-linejoin="round"/><path d="M22 10h-4c-3 0-4-1-4-4V2l8 8ZM7 13h6M7 17h4" stroke="#111" stroke-width="1.5" stroke-linecap="round" stroke-linejoin="round"/></svg>

<svg width="24" height="24" viewBox="0 0 24 24" fill="none" xmlns="http://www.w3.org/2000/svg">
<path d="M22 10V15C22 20 20 22 15 22H9C4 22 2 20 2 15V9C2 4 4 2 9 2H14" stroke="#111111" stroke-width="1.5" stroke-linecap="round" stroke-linejoin="round"/>
<path d="M22 10H18C15 10 14 9 14 6V2L22 10Z" stroke="#111111" stroke-width="1.5" stroke-linecap="round" stroke-linejoin="round"/>
<path d="M7 13H13" stroke="#111111" stroke-width="1.5" stroke-linecap="round" stroke-linejoin="round"/>
<path d="M7 17H11" stroke="#111111" stroke-width="1.5" stroke-linecap="round" stroke-linejoin="round"/>
</svg>
